X: 305545
M: 2/4
L: 1/16
K: D
(3(ABc) |\
d2d2 dbag | fedc d2D2 | BcdB AGFE | FGAF D2A2 |\
(FG) |\
ecAc efge | fedc d2A2 | Bbag fedc | d2[d2D2][d2D2] |]


